X:94
T:Cabot Street
R:strathspey
C:Paul S. Cranford
O:Cape Breton Island
S:http://www.cranfordpub.com
D:currently unrecorded
B:Canadian Fiddle Music Vol. 2, Ed Whitcomb
Z:psc, (re-formatted,updated 9/17/04)
N:
H:                                                        copyrights Cranford Publications, SOCAN
L:1/8
Q:244
M:C
K:GDor
A|B>GD<F {D}G2 G>d|c>dB>d c/B/A/G/ F>A|B>GD<F G>AB<d|c>F d/c/B/A/ B<GG:|
||B|g2 d>B c>AF>a|g2 dd c>AF>c|d<Fc>A B<GG>B|
g2 d>B c>AF>a|g2 dd c/B/A/G/ F>c|d<Fc>A B<GG|]
